!!!!SEGMENT: pl-gd--ee-1638--006-018_marenzio-luca--il-quinto-libro-de-madrigalia-a-cinque-voci-filli-tu-sei-piu-bella.krn
!!!cenid: 15xx:900
!!!COM: Marenzio, Luca
!!!COM-rismID: pe30003955
!!!CDT: ~1553-1599/08/22
!!!CNT: Italian
!!!GTL: Il Quinto libro de madrigalia a cinque voci
!!!OTL: Filli tu sei più bella
!!!OMV: 018
!!!PDT: 1585
!!!AGN:
!!!SMS-siglum: PL-GD
!!!SMS-shelfmark: Ee 1638
!!!SMS-variant:
!!!SMS-altvar:
!!!SMS-shelfwork: 006-018 G
!!!NIFC-rismSourceID: 990039296
!!!NIFC-islandoraID: pl-gd:57883
!!!URL-pdf-islandora: https://repozytorium.nifc.pl/islandora/object/pl-gd%3A57883/datastream/PDF/view
!!!URL-scan: https://polish.musicsources.pl/pl/lokalizacje/galeria/klocki-introligatorskie/655 @EN{Scan on Polish Music Sources Website} @PL{Skany w portalu Dziedzictwo Muzyki Polskiej w otwartym dostępie}
!!!ONB-nifc:
!!!AIN: 1 alto 1 bass 1 soprn 1 tenor 1 vox
!!!key: C
**kern	**text	**kern	**text	**kern	**text	**kern	**text	**kern	**text
*part5	*part5	*part4	*part4	*part3	*part3	*part2	*part2	*part1	*part1
*staff5	*staff5	*staff4	*staff4	*staff3	*staff3	*staff2	*staff2	*staff1	*staff1
*I"QVINTO	*	*I"BASSO	*	*I"TENORE 	*	*I"ALTO	*	*I"CANTO	*
*I'V	*	*I'B	*	*I'T	*	*I'A	*	*I'S	*
*ICvox	*	*ICvox	*	*ICvox	*	*ICvox	*	*ICvox	*
*Ivox	*	*Ibass	*	*Itenor	*	*Ialto	*	*Isoprn	*
*clefC3	*	*clefF3	*	*clefC3	*	*clefC2	*	*clefG2	*
*k[b-]	*	*k[b-]	*	*k[b-]	*	*k[b-]	*	*k[b-]	*
*C:	*	*C:	*	*C:	*	*C:	*	*C:	*
*M2/1	*	*M2/1	*	*M2/1	*	*M2/1	*	*M2/1	*
*met(C|)	*	*met(C|)	*	*met(C|)	*	*met(C|)	*	*met(C|)	*
=1-	=1-	=1-	=1-	=1-	=1-	=1-	=1-	=1-	=1-
!	!	!LO:TX:t=P:problem:podwójnie zapisany znak przykluczowy, kolejno: BB- B-	!	!LO:TX:t=P:problem:podwójnie zapisany znak przykluczowy, kolejno: B- b-	!	!LO:TX:a:t=Prima parte. Aria.	!	!	!
!LO:TX:a:t=Prima parte. Aria.	!	!LO:TX:a:t=Prima parte. Aria.	!	!LO:TX:a:t=Prima parte. Aria.	!	!	!	!LO:TX:a:t=Prima parte.	!
1e	Fil-	1C	Fil-	1c	Fil-	1g	Fil-	1gg	FIl-
1e	-li	1C	-li	1c	-li	1g	-li	1ee	-li
=2-	=2-	=2-	=2-	=2-	=2-	=2-	=2-	=2-	=2-
4r	.	2c\	tu	00r	.	4r	.	4r	.
4e\	tu	.	.	.	.	4g\	tu	4cc\	tu
!	!	!LO:N:acc=#	!	!	!	!	!	!	!
4d\	ſei	4Bn\	ſei	.	.	4g\	ſei	4dd\	ſei
4g\	più	4c\	più	.	.	4cc\	più	4ee\	più
2a\	bel-	2F/	bel-	.	.	2cc\	bel-	2ff\	bel-
4a\	-la	4F/	-la	.	.	4cc\	-la	4ff\	-la
4g\	Di	4G\	Di	.	.	4b-\	Di	4ee\	Di
=3-	=3-	=3-	=3-	=3-	=3-	=3-	=3-	=3-	=3-
4.f\	quel-	4.B-y\	quel-	.	.	4.b-\	quel-	4.dd\	quel-
8f\	-la	8A\	-la	.	.	8cc\	-la	8cc\	-la
4f\	va-	4B-\	va-	.	.	4b-\	va-	4dd\	va-
4e\	-ga	4c\	-ga	.	.	4g\	-ga	4cc\	-ga
!	!	!	!	!	!	!	!	!LO:N:acc=#	!
2d\	ſtel-	2G\	ſtel-	.	.	2g\	ſtel-	2bn/	ſtel-
!LO:SIC:v:t=custos f	!	!LO:SIC:v:t=custos F	!	!	!	!LO:SIC:v:t=custos a	!	!LO:SIC:v:t=custos cc	!
2d\	-la	2G\	-la	.	.	2g\	-la	2b/	-la
!LO:LB:g=original	!	!LO:LB:g=original	!	!	!	!LO:LB:g=original	!	!LO:LB:g=original	!
=4-	=4-	=4-	=4-	=4-	=4-	=4-	=4-	=4-	=4-
4f\	Ch`ac-	4F/	Ch`ac-	00r	.	4a\	Ch`ac-	4cc\	Ch`ac-
2f\	-com-	2F/	-com-	.	.	2a\	-com-	2cc\	-com-
4g\	-pa-	4E/	-pa-	.	.	4e/	-pa-	4cc\	-pa-
4f\	-gnar	4F/	-gnar	.	.	4a\	-gnar	4cc\	-gnar
4d\	`il	4G\	`il	.	.	4g\	`il	4b-y/	`il
2f\	ſo-	2F/	ſo-	.	.	2a\	ſo-	2cc\	ſo-
=5-	=5-	=5-	=5-	=5-	=5-	=5-	=5-	=5-	=5-
2f\	-le	2F/	-le	.	.	2a\	-le	2cc\	-le
4r	.	2B-\	Quãd	.	.	4r	.	4r	.
4d\	Quãd	.	.	.	.	4f\	Quãd	4dd\	Quãd
4d\	`ei	4G\	`ei	.	.	4g\	`ei	4b-/	`ei
4f\	ſi	4F/	ſi	.	.	4a\	ſi	4cc\	ſi
2f\	ſten-	2B-\	ſten-	.	.	2b-\	ſten-	2dd\	ſten-
=6-	=6-	=6-	=6-	=6-	=6-	=6-	=6-	=6-	=6-
4f\	-d`all`-	4BB-/	-d`all`-	00r	.	4b-\	-d`all`-	4dd\	-d`all`-
2d\	-o-	2BB-/	-o-	.	.	2b-\	-o-	2ff\	-o-
4c/	-cci-	4C/	-cci-	.	.	4g\	-cci-	4ee\	-cci-
4A/	-den-	4D/	-den-	.	.	4f\	-den-	4dd\	-den-
4G/	-te	4E/	-te	.	.	4g\	-te	4cc\	-te
1c\	ſuo-	1F\	ſuo-	.	.	1a\	ſuo-	1cc\	ſuo-
=7-	=7-	=7-	=7-	=7-	=7-	=7-	=7-	=7-	=7-
!	!	!	!	!	!	!	!	!LO:SIC:v:t=custos dd	!
2f\	-le	2F/	-le	.	.	2cc\	-le	2a/	-le
!LO:SIC:v:t=custos g	!	!LO:SIC:v:t=custos G	!	!	!	!LO:SIC:v:t=custos b	!	!LO:LB:g=original	!
!	!	!	!	!	!	!LO:N:acc=#	!	!	!
2d\	poi	2G\	poi	.	.	2bn\	poi	2dd\	Poi
!LO:LB:g=original	!	!LO:LB:g=original	!	!	!	!LO:LB:g=original	!	!	!
2g\	far-	2G\	far-	.	.	2b\	far-	2dd\	far-
=8-	=8-	=8-	=8-	=8-	=8-	=8-	=8-	=8-	=8-
4g\	ſi all`	4G\	-s`all`	00r	.	4bny\	-s`all`	4dd\	ſi all`
2g\	al-	2G\	al-	.	.	2b\	al-	2dd\	Al-
4g\	-ba	4C/	-ba	.	.	4cc\	-ba	4ee#X\	-ba
!	!	!	!	!	!	!LO:N:acc=#	!	!	!
1g	ſcor-	1G	ſcor-	.	.	1bn	ſcor-	1dd	ſcor-
=9-	=9-	=9-	=9-	=9-	=9-	=9-	=9-	=9-	=9-
4g\	-ta	2G\	-ta	.	.	2bny\	-ta	2dd\	-ta
4g\	Ch`a	.	.	.	.	.	.	.	.
4.g\	te	2c\	Ch`a	.	.	4r	.	4r	.
.	.	.	.	.	.	4cc\	Ch`a	4eeny\	Ch`a
8f\	vi-	.	.	.	.	.	.	.	.
2e\	-ci-	4c\	te	.	.	4g\	te	4ee\	te
.	.	4B-\	vi-	.	.	4g\	vi-	4dd\	vi-
2e\	-na e	4A\	-ci-	.	.	4a\	-ci-	4cc\	-ci-
!	!	!	!	!	!	!	!	!LO:SIC:s=4bn\	!
.	.	4G\	-na e	.	.	4b\	-na e	4b-\	-na et
=10-	=10-	=10-	=10-	=10-	=10-	=10-	=10-	=10-	=10-
4r	.	2F/	te-	0r	.	2cc\	te-	2a/	te-
2a\	te-	.	.	.	.	.	.	.	.
.	.	2D/	-nebro-	.	.	2dd\	-nebro-	2ff\	-nebro-
4a\	-nebro-	.	.	.	.	.	.	.	.
4g\	ſa	4.E/	ſa	.	.	4cc\	ſa	4ee\	ſa
4g\	e	.	.	.	.	4cc\	e	4ee\	e
.	.	8F/	e	.	.	.	.	.	.
!	!	!	!	!	!	!LO:N:acc=#	!	!	!
2g\	ſmor-	2G\	ſmor-	.	.	2bn\	ſmor-	2dd\	ſmor-
=11-	=11-	=11-	=11-	=11-	=11-	=11-	=11-	=11-	=11-
!	!	!	!	!	!	!	!	!LO:SIC:v:t=custos gg	!
1e	-ta	1C	-ta	1r	.	1cc	-ta	1cc	-ta
!LO:SIC:v:t=custos c	!	!	!	!	!	!	!	!LO:LB:g=original	!
1c	fil-	1C	fil-	1e	Fil-	1g	fil-	1gg	Fil-
!LO:LB:g=original	!	!	!	!	!	!	!	!	!
=12-	=12-	=12-	=12-	=12-	=12-	=12-	=12-	=12-	=12-
!	!	!LO:SIC:v:t=custos c	!	!	!	!LO:SIC:v:t=custos g	!	!	!
1c	-li	1C	-li	1e	-li	1g	-li	1ee	-li
!	!	!LO:LB:g=original	!	!	!	!LO:LB:g=original	!	!	!
1r	.	2c\	tu	4r	.	4r	.	4r	.
.	.	.	.	4e\	tu	4g\	tu	4cc\	tu
!	!	!LO:N:acc=#	!	!	!	!	!	!	!
.	.	4Bn\	ſei	4d\	ſei	4g\	ſei	4dd\	ſei
.	.	4c\	più	4g\	più	4cc\	più	4ee\	più
=13-	=13-	=13-	=13-	=13-	=13-	=13-	=13-	=13-	=13-
00r	.	2F/	cru-	2a\	cru-	2cc\	cru-	2ff\	cru-
.	.	4F/	-da	4a\	-da	4cc\	-da	4ff\	-da
.	.	4G\	E	4g\	e	4b-y\	E	4ee\	E
.	.	4.B-y\	di	4.f\	di	4.b-\	di	4.dd\	di
!	!	!	!	!LO:SIC:v:t=custos f	!	!	!	!	!
.	.	8A\	pie-	8f\	pie-	8cc\	pie-	8cc\	pie-
.	.	4B-\	-tà	4f\	-tà	4b-\	-tà	4dd\	-tà
.	.	4c\	più	4e\	più	4g\	più	4cc\	più
=14-	=14-	=14-	=14-	=14-	=14-	=14-	=14-	=14-	=14-
!	!	!	!	!	!	!	!	!LO:N:acc=#	!
.	.	2G\	ig-	2d\	ig-	2g\	ig-	2bn/	ig-
.	.	2G\	-nuda	2d\	-nuda	2g\	-nuda	2b/	-nuda
.	.	4F/	Di`	4f\	Di	4a\	Di	4cc\	Di
.	.	2F/	quel-	2f\	quel-	2a\	quel-	2cc\	quel-
.	.	4E/	-la	4g\	-la	4e/	-la	4cc\	-la
=15-	=15-	=15-	=15-	=15-	=15-	=15-	=15-	=15-	=15-
00r	.	4F/	Tigr`	4f\	Tigr`	4a\	Tigr`	4cc\	Tigr`
!	!	!	!	!	!	!	!	!LO:SIC:v:t=custos cc	!
.	.	4G\	Hir-	4d\	Hir-	4g\	Hir-	4b-y/	Hir-
!	!	!	!	!	!	!	!	!LO:LB:g=original	!
.	.	2F/	-ca-	2f\	-ca-	2a\	-ca-	2cc\	-ca-
!	!	!LO:SIC:v:t=custos B	!	!	!	!LO:SIC:v:t=custos f	!	!	!
.	.	2F/	-na	2f\	-na	2a\	-na	2cc\	-na
!	!	!LO:LB:g=original	!	!	!	!LO:LB:g=original	!	!	!
.	.	2B-\	Ch`or-	4r	.	4r	.	4r	.
.	.	.	.	4d\	Chor-	4f\	Ch`or-	4dd\	Ch`or-
=16-	=16-	=16-	=16-	=16-	=16-	=16-	=16-	=16-	=16-
.	.	4G\	-ba	4d\	-ba	4g\	-ba	4b-\	-ba
.	.	4F\	di	4f\	di	4a\	di	4cc\	di
.	.	2B-\	ſi-	2f\	ſi-	2b-\	ſi-	2dd\	ſi-
.	.	4BB-/	-gli	4f\	-gli	4b-\	-gli	4dd\	-gli
.	.	2BB-/	in	2d\	in	2b-\	in	2ff\	in
.	.	4C/	voc`	4c/	voce	4g\	voc`	4ee\	voc`
=17-	=17-	=17-	=17-	=17-	=17-	=17-	=17-	=17-	=17-
00r	.	4D/	hor-	4A/	hor-	4f\	hor-	4dd\	hor-
!	!	!	!	!LO:SIC:v:t=custos c	!	!	!	!	!
.	.	4E/	-rida e	4G/	-rida e	4g\	-rida e	4cc\	-rida e
.	.	1F	ſtra-	1c	ſtra-	1a	ſtra-	1cc	ſtra-
.	.	2F/	-na	2f\	-na	2cc\	-na	2a/	-na
=18-	=18-	=18-	=18-	=18-	=18-	=18-	=18-	=18-	=18-
!	!	!	!	!	!	!LO:N:acc=#	!	!	!
.	.	2G\	Ge-	2d\	Ge-	2bn\	Ge-	2dd\	Ge-
.	.	2G\	-me	2g\	-me	2b\	-me	2dd\	-me
.	.	4G\	la	4g\	la	4b\	la	4dd\	la
.	.	2G\	ſua	2g\	ſua	2b\	ſua	2dd\	ſua
!	!	!	!	!	!	!	!	!LO:SIC:v:t=custos dd	!
.	.	4C/	ſuen-	4g\	ſuen-	4cc\	ſuen-	4ee#X\	ſuen-
!	!	!	!	!	!	!	!	!LO:LB:g=original	!
=19-	=19-	=19-	=19-	=19-	=19-	=19-	=19-	=19-	=19-
!	!	!	!	!	!	!LO:N:acc=#	!	!	!
00r	.	1G	-tu-	1g	-tu-	1bn	-tu-	1dd	-tu-
.	.	2G\	-ra	4g\	-ra	2b\	-ra	2dd\	-ra
.	.	.	.	4g\	Di	.	.	.	.
!	!	!LO:SIC:v:t=custos c	!	!	!	!	!	!	!
.	.	2c\	Di	4.g\	que-	4r	.	4r	.
!	!	!	!	!	!	!LO:SIC:v:t=custos g	!	!	!
.	.	.	.	.	.	4cc\	Di	4eeny\	Du
.	.	.	.	8f\	ſta	.	.	.	.
!	!	!LO:LB:g=original	!	!	!	!LO:LB:g=original	!	!	!
=20-	=20-	=20-	=20-	=20-	=20-	=20-	=20-	=20-	=20-
.	.	4c\	que-	2e\	mia	4g\	que-	4ee\	que-
.	.	4B-\	ſta	.	.	4g\	ſta	4ee\	-ſta
.	.	4A\	mia	2e\	men	4a\	mia	4dd\	mia
.	.	4G\	mẽ(n)	.	.	4b-y\	men	4b-/	mẽ(n)
.	.	2F/	aſ-	4r	.	2cc\	aſ-	2a/	aſ-
.	.	.	.	2a\	aſ-	.	.	.	.
.	.	2D/	-pra e	.	.	2dd\	-pra e	2ff\	-pra e
.	.	.	.	4a\	-pra e	.	.	.	.
=21-	=21-	=21-	=21-	=21-	=21-	=21-	=21-	=21-	=21-
1r	.	4.E/	via	4g\	via	4cc\	via	4ee\	via
.	.	.	.	4g\	mẽ(n)	4cc\	mẽ(n)	4ee\	men
.	.	8F/	mẽ(n)	.	.	.	.	.	.
!	!	!	!	!	!	!LO:N:acc=#	!	!	!
.	.	2G\	du-	2g\	du-	2bn\	-du-	2dd\	-du-
!	!	!	!	!LO:SIC:v:t=custos e	!	!	!	!	!
2r	.	1C	-ra	1e	-ra	1cc	-ra	1cc	-ra
2g\	Di	.	.	.	.	.	.	.	.
=22-	=22-	=22-	=22-	=22-	=22-	=22-	=22-	=22-	=22-
4.g\	que-	2c\	Di	2e\	Di	4r	.	4r	.
!	!	!	!	!	!	!LO:SIC:v:t=custos g	!	!	!
.	.	.	.	.	.	4cc\	Di	4ee\	Di
8f\	ſta	.	.	.	.	.	.	.	.
!	!	!	!	!	!	!LO:LB:g=original	!	!	!
2e\	mia	4c\	que-	4c/	que-	4g\	que-	4ee\	que-
.	.	4B-\	ſta	4d\	ſta	4g\	ſta	4dd\	ſta
2e\	mẽ(n)	4A\	mia	4e\	mia	4a\	mia	4cc\	mia
!	!	!	!	!	!	!	!	!LO:SIC:v:t=custos a	!
.	.	4G\	mẽ(n)	4g\	mẽ(n)	4b-y\	mẽ(n)	4b-/	men
!	!	!	!	!	!	!	!	!LO:LB:g=original	!
4r	.	2F/	aſ-	2c/	aſ-	2cc\	aſ-	2a/	aſ-
2a\	aſ-	.	.	.	.	.	.	.	.
=23-	=23-	=23-	=23-	=23-	=23-	=23-	=23-	=23-	=23-
.	.	2D/	-pra e	2F/	-pra e	2dd\	-pra e	2ff\	-pra e
4a\	-pra e	.	.	.	.	.	.	.	.
4g\	via	4.E/	via	4G/	via	4cc\	via	8ee\	via
.	.	.	.	.	.	.	.	8ff\	.
!	!	!	!	!	!	!LO:SIC:v:t=custos b	!	!	!
4g\	mẽ(n)	.	.	4G/	mẽ(n)	2cc\	men	2gg\	.
.	.	8F/	mẽ(n)	.	.	.	.	.	.
1g	du-	1G	du-	1d	du-	.	.	.	.
!	!	!	!	!	!	!LO:LB:g=original	!	!	!
!	!	!	!	!	!	!LO:N:acc=#	!	!	!
.	.	.	.	.	.	8bn\	.	4dd\	men
.	.	.	.	.	.	8a\	.	.	.
!	!	!	!	!	!	!LO:N:acc=#	!	!	!
.	.	.	.	.	.	2bn\	-du-	2dd\	du-
=24-	=24-	=24-	=24-	=24-	=24-	=24-	=24-	=24-	=24-
00g	-ra.	00C	-ra.	00c	-ra.	00cc	-ra.	00ee	-ra.
==	==	==	==	==	==	==	==	==	==
*-	*-	*-	*-	*-	*-	*-	*-	*-	*-
!!!system-decoration: [(s1,s2,s3,s4,s5)]
!!!ENC: Filip Voros
!!!END: 2022-06-09
!!!ENC: Jan Barakat
!!!END: 2022-07-20
!!!YEC: Copyright 2022 Narodowy Instytut Fryderyka Chopina (https://polishscores.org)
!!!YEM: Licence CC BY 4.0 (https://creativecommons.org/licenses/by/4.0)
